assets/images/icons/day-tour.svg

<svg width="32" height="32" viewBox="0 0 32 32" fill="none" xmlns="http://www.w3.org/2000/svg">
<path opacity="0.1" d="M0.223155 23.1618C-0.0589054 20.752 -0.098086 18.3874 0.248062 16.248C0.673696 13.6174 1.78493 10.6909 2.99894 8.07362C5.37163 2.95839 9.61911 1.16885 14.7912 0.362065C22.0007 -0.762522 31.9372 0.362091 32 9.08714C31.6383 12.2073 29.2517 20.8815 21.1951 21.5434C18.5313 21.7622 17.5348 24.4378 16.3612 27.5006C13.2729 35.5602 1.25575 31.9835 0.223155 23.1618Z" fill="#7FB51F"/>
<path d="M25.6977 20.6016C25.294 20.6016 24.8844 20.6268 24.4801 20.6767C23.3911 20.811 22.3532 21.1183 21.3858 21.5905C22.6688 22.1284 24.0277 22.3896 25.5 22.3896V23.7958C23.7708 23.7958 22.2073 23.4822 20.7201 22.8369C19.0361 22.1063 17.4878 20.9711 15.9865 19.3666C13.7818 17.0102 10.993 15.5643 7.92161 15.1855C6.60766 15.0235 5.2893 15.06 4 15.2929V18.507C4.75436 18.3473 5.52588 18.2664 6.30227 18.2664C6.76328 18.2664 7.23091 18.2952 7.69206 18.3521C10.6538 18.7174 13.2959 20.2143 15.1317 22.5668L14.0231 23.4319C12.4183 21.3755 10.1088 20.0672 7.51989 19.7478C7.11564 19.698 6.70595 19.6727 6.30227 19.6727C5.52363 19.6727 4.7508 19.7656 4 19.9491V25.1015H28V20.878C27.249 20.6945 26.4763 20.6016 25.6977 20.6016Z" fill="#7FB51F"/>
<path d="M24.0765 17.2878C21.9448 17.5508 19.928 18.3278 18.1875 19.5486C18.7402 20.0333 19.3028 20.4532 19.8788 20.811C19.9688 20.7564 20.0596 20.703 20.1506 20.6512C21.4293 19.9244 22.8273 19.4635 24.306 19.2811C24.7672 19.2242 25.2348 19.1953 25.6958 19.1953C26.4721 19.1953 27.2436 19.2762 27.9981 19.4359V17.3953C26.7088 17.1623 25.3904 17.1257 24.0765 17.2878Z" fill="#7FB51F"/>
<path d="M13.0435 15.3533C14.5101 16.1317 15.8454 17.1588 17.0122 18.4059C17.0603 18.4573 17.1086 18.5072 17.1568 18.5576C18.6604 17.4593 20.3588 16.6659 22.1642 16.2155C21.823 13.1153 19.1884 10.6953 15.9988 10.6953C13.519 10.6953 11.3748 12.1582 10.3828 14.2661C11.2991 14.5367 12.1887 14.8996 13.0435 15.3533Z" fill="#7FB51F"/>
<path d="M15.2969 6.89844H16.7031V8.89845H15.2969V6.89844Z" fill="#7FB51F"/>
<path d="M10.3906 8.5896L11.6084 7.88647L12.6084 9.61849L11.3906 10.3216L10.3906 8.5896Z" fill="#7FB51F"/>
<path d="M6.98828 12.5073L7.69141 11.2895L9.42342 12.2895L8.7203 13.5073L6.98828 12.5073Z" fill="#7FB51F"/>
<path d="M19.3906 9.61914L20.3906 7.88713L21.6084 8.59025L20.6084 10.3223L19.3906 9.61914Z" fill="#7FB51F"/>
<path d="M22.5781 12.2896L24.3101 11.2895L25.0133 12.5074L23.2812 13.5074L22.5781 12.2896Z" fill="#7FB51F"/>
</svg>

<svg xmlns="http://www.w3.org/2000/svg" width="32" height="32" fill="none"><path fill="#7FB51F" d="M.223 23.162c-.282-2.41-.321-4.775.025-6.914.426-2.63 1.537-5.557 2.75-8.174C5.373 2.958 9.62 1.169 14.792.362 22.001-.763 31.937.362 32 9.087c-.362 3.12-2.748 11.795-10.805 12.456-2.664.22-3.66 2.895-4.834 5.958-3.088 8.06-15.105 4.482-16.138-4.34" opacity=".1"/><path fill="#7FB51F" d="M25.698 20.602c-.404 0-.814.025-1.218.075a9.8 9.8 0 0 0-3.094.913c1.283.538 2.642.8 4.114.8v1.406c-1.73 0-3.293-.314-4.78-.96-1.684-.73-3.232-1.865-4.733-3.47-2.205-2.356-4.994-3.802-8.065-4.18A13 13 0 0 0 4 15.292v3.214a11.1 11.1 0 0 1 3.692-.155 11.1 11.1 0 0 1 7.44 4.215l-1.109.865a9.7 9.7 0 0 0-6.503-3.684 9.7 9.7 0 0 0-3.52.201v5.153h24v-4.224a9.7 9.7 0 0 0-2.302-.276"/><path fill="#7FB51F" d="M24.077 17.288a13 13 0 0 0-5.89 2.26q.829.727 1.692 1.263.134-.082.272-.16a11.1 11.1 0 0 1 4.155-1.37 11.1 11.1 0 0 1 3.692.155v-2.04a13 13 0 0 0-3.922-.108m-11.032-1.935a15.2 15.2 0 0 1 3.968 3.053l.145.152a14.4 14.4 0 0 1 5.007-2.343A6.21 6.21 0 0 0 16 10.696a6.21 6.21 0 0 0-5.616 3.571c.916.27 1.806.634 2.66 1.087m2.253-8.456h1.406v2h-1.406zM10.39 8.59l1.218-.704 1 1.732-1.217.704zm-3.402 3.917.703-1.217 1.732 1-.703 1.217zM19.39 9.62l1-1.733 1.218.703-1 1.732zm3.188 2.67 1.732-1 .703 1.217-1.732 1z"/></svg>
